kora/actions/scalable/transform-shear-left.svg

<svg xmlns="http://www.w3.org/2000/svg" style="fill-rule:evenodd;clip-rule:evenodd;stroke-linejoin:round;stroke-miterlimit:2" width="100%" height="100%" version="1.1" viewBox="0 0 16 16" xml:space="preserve">
 <defs>
  <style id="current-color-scheme" type="text/css">
   .ColorScheme-Text { color:#dfdfdf; } .ColorScheme-Highlight { color:#4285f4; } .ColorScheme-NeutralText { color:#ff9800; } .ColorScheme-PositiveText { color:#4caf50; } .ColorScheme-NegativeText { color:#f44336; }
  </style>
 </defs>
 <path style="fill:currentColor;" class="ColorScheme-Text" d="M4,6l2,9l9,0l-2,-9l-9,0Z"/>
 <path style="fill:currentColor;fill-opacity:0.3" class="ColorScheme-Text" d="M1,1l0,9l2.865,0l-1.111,-5l8.246,0l0,-4l-10,0Z"/>
</svg>

<svg xmlns="http://www.w3.org/2000/svg" width="16" height="16" viewBox="0 0 16 16">
 <defs>
  <style id="current-color-scheme" type="text/css">
   .ColorScheme-Text { color:#dfdfdf; } .ColorScheme-Highlight { color:#4285f4; }
  </style>
 </defs>
 <path style="fill:currentColor" class="ColorScheme-Text" d="M 1 1 L 1 10 L 3.8652344 10 L 2.7539062 5 L 11 5 L 11 1 L 1 1 z M 4 6 L 6 15 L 15 15 L 13 6 L 4 6 z"/>
</svg>
